synths/sNFLX.svg

<svg width="480" height="480" viewBox="0 0 480 480" fill="none" xmlns="http://www.w3.org/2000/svg"><mask id="mask0-089444" maskUnits="userSpaceOnUse" x="0" y="0" width="480" height="480"><circle cx="240" cy="240" r="240" fill="url(#paint0_linear-801577)"/></mask><g mask="url(#mask0-089444)"><circle cx="240" cy="240" r="240" fill="#31D8A4"/><circle cx="240" cy="240" r="208" fill="#fff"/></g><circle cx="240" cy="240" r="184" fill="#000"/><path fill-rule="evenodd" clip-rule="evenodd" d="M259.084 120.158l-.094 53.039-.093 53.039-4.364-12.312a.225.225 0 01-.008-.024l-5.639 118.079c5.544 15.656 8.514 24.014 8.548 24.047.043.044 3.203.235 7.021.424 11.567.574 25.902 1.804 36.776 3.155 2.518.313 4.684.473 4.815.356.13-.116.201-54.12.158-120.008l-.08-119.795h-47.04zM174 120v119.917c0 65.954.065 119.981.144 120.06.079.079 4.163-.306 9.076-.857 4.913-.55 11.704-1.234 15.09-1.52 5.193-.438 20.697-1.435 22.493-1.446.522-.004.556-2.698.631-50.792l.08-50.788 3.752 10.614c.579 1.641.761 2.153 1.326 3.751l5.638-118.05c-1.195-3.377-.569-1.604-1.938-5.474a40333.372 40333.372 0 00-8.686-24.547l-.311-.868H174z" fill="#B1060F" stroke="#000" stroke-width=".082"/><path fill-rule="evenodd" clip-rule="evenodd" d="M174 120v67.313l47.419 125.784c.004-2.882.01-4.44.015-7.735l.08-50.788 3.752 10.614c20.882 59.09 32.102 90.772 32.168 90.838.043.044 3.203.234 7.021.424 11.567.574 25.902 1.804 36.776 3.155 2.518.313 4.684.473 4.815.356.089-.08.148-26.559.164-63.914l-47.197-135.691-.023 12.841-.093 53.039-4.364-12.313c-4.264-12.03-7.111-20.076-24.241-68.508a40333.372 40333.372 0 00-8.686-24.547l-.311-.868H174z" fill="url(#paint1_radial-864759)"/><path fill-rule="evenodd" clip-rule="evenodd" d="M174 120l47.514 134.635v-.061l3.751 10.614c20.883 59.09 32.102 90.772 32.168 90.838.043.044 3.203.234 7.021.424 11.567.574 25.902 1.804 36.776 3.155 2.505.311 4.661.471 4.811.358l-47.145-133.752v.025l-4.364-12.313c-4.264-12.03-7.11-20.076-24.24-68.508a50241.002 50241.002 0 00-8.686-24.547l-.312-.868H174z" fill="#E50914"/><path fill-rule="evenodd" clip-rule="evenodd" d="M259.084 120.158l-.094 53.039-.093 53.039-4.364-12.312a.225.225 0 01-.008-.024l-5.639 118.079c5.544 15.656 8.514 24.014 8.548 24.047.043.044 3.203.235 7.021.424 11.567.574 25.902 1.804 36.776 3.155 2.518.313 4.684.473 4.815.356.13-.116.201-54.12.158-120.008l-.08-119.795h-47.04zM174 120v119.917c0 65.954.065 119.981.144 120.06.079.079 4.163-.306 9.076-.857 4.913-.55 11.704-1.234 15.09-1.52 5.193-.438 20.697-1.435 22.493-1.446.522-.004.556-2.698.631-50.792l.08-50.788 3.752 10.614c.579 1.641.761 2.153 1.326 3.751l5.638-118.05c-1.195-3.377-.569-1.604-1.938-5.474a40333.372 40333.372 0 00-8.686-24.547l-.311-.868H174z" fill="#B1060F" stroke="#000" stroke-width=".082"/><path fill-rule="evenodd" clip-rule="evenodd" d="M174 120v67.313l47.419 125.784c.004-2.882.01-4.44.015-7.735l.08-50.788 3.752 10.614c20.882 59.09 32.102 90.772 32.168 90.838.043.044 3.203.234 7.021.424 11.567.574 25.902 1.804 36.776 3.155 2.518.313 4.684.473 4.815.356.089-.08.148-26.559.164-63.914l-47.197-135.691-.023 12.841-.093 53.039-4.364-12.313c-4.264-12.03-7.111-20.076-24.241-68.508a40333.372 40333.372 0 00-8.686-24.547l-.311-.868H174z" fill="url(#paint2_radial-367608)"/><path fill-rule="evenodd" clip-rule="evenodd" d="M174 120l47.514 134.635v-.061l3.751 10.614c20.883 59.09 32.102 90.772 32.168 90.838.043.044 3.203.234 7.021.424 11.567.574 25.902 1.804 36.776 3.155 2.505.311 4.661.471 4.811.358l-47.145-133.752v.025l-4.364-12.313c-4.264-12.03-7.11-20.076-24.24-68.508a50241.002 50241.002 0 00-8.686-24.547l-.312-.868H174z" fill="#E50914"/><defs><radialGradient id="paint1_radial-864759" cx="0" cy="0" r="1" gradientUnits="userSpaceOnUse" gradientTransform="matrix(28.31665 -9.80452 359.1316 1037.21556 237.91 238.604)"><stop/><stop offset="1" stop-opacity="0"/></radialGradient><radialGradient id="paint2_radial-367608" cx="0" cy="0" r="1" gradientUnits="userSpaceOnUse" gradientTransform="matrix(28.31665 -9.80452 359.1316 1037.21556 237.91 238.604)"><stop/><stop offset="1" stop-opacity="0"/></radialGradient><linearGradient id="paint0_linear-801577" x1="240" y1="0" x2="240" y2="701.818" gradientUnits="userSpaceOnUse"><stop stop-color="#08021E"/><stop offset="1" stop-color="#1F0777"/></linearGradient></defs></svg>

<svg width="480" height="480" viewBox="0 0 480 480" fill="none" xmlns="http://www.w3.org/2000/svg">
<mask id="mask0-089444" mask-type="alpha" maskUnits="userSpaceOnUse" x="0" y="0" width="480" height="480">
<circle cx="240" cy="240" r="240" fill="url(#paint0_linear-801577)"/>
</mask>
<g mask="url(#mask0-089444)">
<circle cx="240" cy="240" r="240" fill="#31D8A4"/>
<circle cx="240" cy="240" r="208" fill="white"/>
</g>
<circle cx="240" cy="240" r="184" fill="black"/>
<path fill-rule="evenodd" clip-rule="evenodd" d="M259.084 120.158L258.99 173.197L258.897 226.236L254.533 213.924C254.531 213.92 254.526 213.904 254.525 213.9L248.886 331.979C254.43 347.635 257.4 355.993 257.434 356.026C257.477 356.07 260.637 356.261 264.455 356.45C276.022 357.024 290.357 358.254 301.231 359.605C303.749 359.918 305.915 360.078 306.046 359.961C306.176 359.845 306.247 305.841 306.204 239.953L306.124 120.158H282.604H259.084Z" fill="#B1060F" stroke="black" stroke-width="0.0820533"/>
<path fill-rule="evenodd" clip-rule="evenodd" d="M174 120V239.917C174 305.871 174.065 359.898 174.144 359.977C174.223 360.056 178.307 359.671 183.22 359.12C188.133 358.57 194.924 357.886 198.31 357.6C203.503 357.162 219.007 356.165 220.803 356.154C221.325 356.15 221.359 353.456 221.434 305.362L221.514 254.574L225.266 265.188C225.845 266.829 226.027 267.341 226.592 268.939L232.23 150.889C231.035 147.512 231.661 149.285 230.292 145.415C225.686 132.392 221.778 121.346 221.606 120.868L221.295 120H197.648H174Z" fill="#B1060F" stroke="black" stroke-width="0.0820533"/>
<path fill-rule="evenodd" clip-rule="evenodd" d="M174 120V187.313L221.419 313.097C221.423 310.215 221.429 308.657 221.434 305.362L221.514 254.574L225.266 265.188C246.148 324.278 257.368 355.96 257.434 356.026C257.477 356.07 260.637 356.26 264.455 356.45C276.022 357.024 290.357 358.254 301.231 359.605C303.749 359.918 305.915 360.078 306.046 359.961C306.135 359.881 306.194 333.402 306.21 296.047L259.013 160.356L258.99 173.197L258.897 226.236L254.533 213.923C250.269 201.893 247.422 193.847 230.292 145.415C225.686 132.392 221.778 121.346 221.606 120.868L221.295 120H197.648H174H174Z" fill="url(#paint1_radial-864759)"/>
<path fill-rule="evenodd" clip-rule="evenodd" d="M174 120L221.514 254.635V254.574L225.265 265.188C246.148 324.278 257.367 355.96 257.433 356.026C257.476 356.07 260.636 356.26 264.454 356.45C276.021 357.024 290.356 358.254 301.23 359.605C303.735 359.916 305.891 360.076 306.041 359.963L258.896 226.211V226.236L254.532 213.923C250.268 201.893 247.422 193.847 230.292 145.415C225.686 132.392 221.777 121.346 221.606 120.868L221.294 120H197.647H174V120Z" fill="#E50914"/>
<path fill-rule="evenodd" clip-rule="evenodd" d="M259.084 120.158L258.99 173.197L258.897 226.236L254.533 213.924C254.531 213.92 254.526 213.904 254.525 213.9L248.886 331.979C254.43 347.635 257.4 355.993 257.434 356.026C257.477 356.07 260.637 356.261 264.455 356.45C276.022 357.024 290.357 358.254 301.231 359.605C303.749 359.918 305.915 360.078 306.046 359.961C306.176 359.845 306.247 305.841 306.204 239.953L306.124 120.158H282.604H259.084Z" fill="#B1060F" stroke="black" stroke-width="0.0820533"/>
<path fill-rule="evenodd" clip-rule="evenodd" d="M174 120V239.917C174 305.871 174.065 359.898 174.144 359.977C174.223 360.056 178.307 359.671 183.22 359.12C188.133 358.57 194.924 357.886 198.31 357.6C203.503 357.162 219.007 356.165 220.803 356.154C221.325 356.15 221.359 353.456 221.434 305.362L221.514 254.574L225.266 265.188C225.845 266.829 226.027 267.341 226.592 268.939L232.23 150.889C231.035 147.512 231.661 149.285 230.292 145.415C225.686 132.392 221.778 121.346 221.606 120.868L221.295 120H197.648H174Z" fill="#B1060F" stroke="black" stroke-width="0.0820533"/>
<path fill-rule="evenodd" clip-rule="evenodd" d="M174 120V187.313L221.419 313.097C221.423 310.215 221.429 308.657 221.434 305.362L221.514 254.574L225.266 265.188C246.148 324.278 257.368 355.96 257.434 356.026C257.477 356.07 260.637 356.26 264.455 356.45C276.022 357.024 290.357 358.254 301.231 359.605C303.749 359.918 305.915 360.078 306.046 359.961C306.135 359.881 306.194 333.402 306.21 296.047L259.013 160.356L258.99 173.197L258.897 226.236L254.533 213.923C250.269 201.893 247.422 193.847 230.292 145.415C225.686 132.392 221.778 121.346 221.606 120.868L221.295 120H197.648H174H174Z" fill="url(#paint2_radial-367608)"/>
<path fill-rule="evenodd" clip-rule="evenodd" d="M174 120L221.514 254.635V254.574L225.265 265.188C246.148 324.278 257.367 355.96 257.433 356.026C257.476 356.07 260.636 356.26 264.454 356.45C276.021 357.024 290.356 358.254 301.23 359.605C303.735 359.916 305.891 360.076 306.041 359.963L258.896 226.211V226.236L254.532 213.923C250.268 201.893 247.422 193.847 230.292 145.415C225.686 132.392 221.777 121.346 221.606 120.868L221.294 120H197.647H174V120Z" fill="#E50914"/>
<defs>
<linearGradient id="paint0_linear-801577" x1="240" y1="0" x2="240" y2="701.818" gradientUnits="userSpaceOnUse">
<stop stop-color="#08021E"/>
<stop offset="1" stop-color="#1F0777"/>
</linearGradient>
<radialGradient id="paint1_radial-864759" cx="0" cy="0" r="1" gradientUnits="userSpaceOnUse" gradientTransform="translate(237.91 238.604) rotate(-19.0982) scale(29.966 1097.63)">
<stop/>
<stop offset="1" stop-opacity="0"/>
</radialGradient>
<radialGradient id="paint2_radial-367608" cx="0" cy="0" r="1" gradientUnits="userSpaceOnUse" gradientTransform="translate(237.91 238.604) rotate(-19.0982) scale(29.966 1097.63)">
<stop/>
<stop offset="1" stop-opacity="0"/>
</radialGradient>
</defs>
</svg>
